src/assets/outline/Simcard2.svg

<svg width="24" height="24" viewBox="0 0 24 24"  xmlns="http://www.w3.org/2000/svg">
<path d="M12.11 22.7199H5.89C3.16 22.7199 1.25 20.8099 1.25 18.0799V10.3099C1.25 7.57992 3.16 5.66992 5.89 5.66992H9.72C10.94 5.66992 12.14 6.16992 13 7.02992L15.39 9.40992C16.26 10.2799 16.75 11.4699 16.75 12.6899V18.0799C16.75 20.8099 14.84 22.7199 12.11 22.7199ZM5.89 7.16992C3.98 7.16992 2.75 8.39992 2.75 10.3099V18.0799C2.75 19.9899 3.98 21.2199 5.89 21.2199H12.11C14.02 21.2199 15.25 19.9899 15.25 18.0799V12.6899C15.25 11.8599 14.91 11.0599 14.33 10.4699L11.94 8.08992C11.35 7.49992 10.54 7.16992 9.72 7.16992H5.89Z" />
<path d="M18.11 18.2797H16C15.59 18.2797 15.25 17.9397 15.25 17.5297V12.6897C15.25 11.8597 14.91 11.0597 14.33 10.4697L11.94 8.08973C11.35 7.49973 10.54 7.16973 9.72 7.16973H8C7.59 7.16973 7.25 6.82973 7.25 6.41973V5.85973C7.25 3.12973 9.16 1.21973 11.89 1.21973H15.72C16.94 1.21973 18.14 1.71973 19 2.57973L21.39 4.96973C22.27 5.84973 22.75 7.00973 22.75 8.24973V13.6397C22.75 16.3697 20.84 18.2797 18.11 18.2797ZM16.75 16.7797H18.11C20.02 16.7797 21.25 15.5497 21.25 13.6397V8.24973C21.25 7.40973 20.92 6.61973 20.33 6.02973L17.94 3.63973C17.36 3.05973 16.55 2.71973 15.72 2.71973H11.89C10.05 2.71973 8.83 3.86973 8.75 5.66973H9.72C10.94 5.66973 12.14 6.16973 13 7.02973L15.39 9.40973C16.26 10.2797 16.75 11.4697 16.75 12.6897V16.7797Z" />
</svg>

<?xml version="1.0" encoding="UTF-8"?>
<svg width="24" height="24" viewBox="0 0 24 24" xmlns="http://www.w3.org/2000/svg">
 <path d="m12.11 22.72h-6.22c-2.73 0-4.64-1.91-4.64-4.64v-7.77c0-2.73 1.91-4.64 4.64-4.64h3.83c1.22 0 2.42 0.5 3.28 1.36l2.39 2.38c0.87 0.86998 1.36 2.06 1.36 3.28v5.39c0 2.73-1.91 4.64-4.64 4.64zm-6.22-15.55c-1.91 0-3.14 1.23-3.14 3.14v7.77c0 1.91 1.23 3.14 3.14 3.14h6.22c1.91 0 3.14-1.23 3.14-3.14v-5.39c0-0.83-0.34-1.63-0.92-2.22l-2.39-2.38c-0.59-0.59-1.4-0.92-2.22-0.92h-3.83z"/>
 <path d="m18.11 18.28h-2.11c-0.41 0-0.75-0.34-0.75-0.75v-4.84c0-0.83-0.34-1.63-0.92-2.22l-2.39-2.38c-0.59-0.59-1.4-0.92-2.22-0.92h-1.72c-0.41 0-0.75-0.34-0.75-0.75v-0.56c0-2.73 1.91-4.64 4.64-4.64h3.83c1.22 0 2.42 0.5 3.28 1.36l2.39 2.39c0.88 0.88 1.36 2.04 1.36 3.28v5.39c0 2.73-1.91 4.64-4.64 4.64zm-1.36-1.5h1.36c1.91 0 3.14-1.23 3.14-3.14v-5.39c0-0.84-0.33-1.63-0.92-2.22l-2.39-2.39c-0.58-0.58-1.39-0.92-2.22-0.92h-3.83c-1.84 0-3.06 1.15-3.14 2.95h0.97c1.22 0 2.42 0.5 3.28 1.36l2.39 2.38c0.87 0.86997 1.36 2.06 1.36 3.28v4.09z"/>
</svg>
